Resources/DefaultStyle.bundle/poi_book.svg

<svg width="18" height="18" viewBox="0 0 18 18" fill="none" xmlns="http://www.w3.org/2000/svg">
<circle cx="9" cy="9" r="8.5" fill="#808080" stroke="white"/>
<path d="M10 7.3875C10 7.3125 10.0272 7.23533 10.0815 7.156C10.1355 7.077 10.1958 7.025 10.2625 7C10.5042 6.91667 10.7458 6.85417 10.9875 6.8125C11.2292 6.77083 11.4833 6.75 11.75 6.75C11.9167 6.75 12.0813 6.76033 12.244 6.781C12.4063 6.802 12.5667 6.82917 12.725 6.8625C12.8 6.87917 12.8645 6.92083 12.9185 6.9875C12.9728 7.05417 13 7.12917 13 7.2125C13 7.35417 12.9542 7.45833 12.8625 7.525C12.7708 7.59167 12.6542 7.60833 12.5125 7.575C12.3958 7.55 12.273 7.53117 12.144 7.5185C12.0147 7.50617 11.8833 7.5 11.75 7.5C11.5333 7.5 11.3208 7.52083 11.1125 7.5625C10.9042 7.60417 10.7042 7.65833 10.5125 7.725C10.3625 7.78333 10.2397 7.77917 10.144 7.7125C10.048 7.64583 10 7.5375 10 7.3875ZM10 10.1375C10 10.0625 10.0272 9.98533 10.0815 9.906C10.1355 9.827 10.1958 9.775 10.2625 9.75C10.5042 9.66667 10.7458 9.60417 10.9875 9.5625C11.2292 9.52083 11.4833 9.5 11.75 9.5C11.9167 9.5 12.0813 9.51033 12.244 9.531C12.4063 9.552 12.5667 9.57917 12.725 9.6125C12.8 9.62917 12.8645 9.67083 12.9185 9.7375C12.9728 9.80417 13 9.87917 13 9.9625C13 10.1042 12.9542 10.2083 12.8625 10.275C12.7708 10.3417 12.6542 10.3583 12.5125 10.325C12.3958 10.3 12.273 10.2812 12.144 10.2685C12.0147 10.2562 11.8833 10.25 11.75 10.25C11.5333 10.25 11.3208 10.2688 11.1125 10.3065C10.9042 10.3438 10.7042 10.3958 10.5125 10.4625C10.3625 10.5208 10.2397 10.5187 10.144 10.456C10.048 10.3937 10 10.2875 10 10.1375ZM10 8.7625C10 8.6875 10.0272 8.61033 10.0815 8.531C10.1355 8.452 10.1958 8.4 10.2625 8.375C10.5042 8.29167 10.7458 8.22917 10.9875 8.1875C11.2292 8.14583 11.4833 8.125 11.75 8.125C11.9167 8.125 12.0813 8.13533 12.244 8.156C12.4063 8.177 12.5667 8.20417 12.725 8.2375C12.8 8.25417 12.8645 8.29583 12.9185 8.3625C12.9728 8.42917 13 8.50417 13 8.5875C13 8.72917 12.9542 8.83333 12.8625 8.9C12.7708 8.96667 12.6542 8.98333 12.5125 8.95C12.3958 8.925 12.273 8.90617 12.144 8.8935C12.0147 8.88117 11.8833 8.875 11.75 8.875C11.5333 8.875 11.3208 8.89583 11.1125 8.9375C10.9042 8.97917 10.7042 9.03333 10.5125 9.1C10.3625 9.15833 10.2397 9.15417 10.144 9.0875C10.048 9.02083 10 8.9125 10 8.7625ZM9.5 11.525C9.86667 11.35 10.2355 11.2187 10.6065 11.131C10.9772 11.0437 11.3583 11 11.75 11C12.05 11 12.3438 11.025 12.6315 11.075C12.9188 11.125 13.2083 11.2 13.5 11.3V6.35C13.225 6.23333 12.9397 6.14583 12.644 6.0875C12.348 6.02917 12.05 6 11.75 6C11.3583 6 10.9708 6.05 10.5875 6.15C10.2042 6.25 9.84167 6.4 9.5 6.6V11.525ZM9 12.7375C8.88333 12.7375 8.773 12.723 8.669 12.694C8.56467 12.6647 8.46667 12.625 8.375 12.575C8.05 12.3833 7.70833 12.2397 7.35 12.144C6.99167 12.048 6.625 12 6.25 12C5.9 12 5.55633 12.0458 5.219 12.1375C4.88133 12.2292 4.55833 12.3583 4.25 12.525C4.075 12.6167 3.90633 12.6125 3.744 12.5125C3.58133 12.4125 3.5 12.2667 3.5 12.075V6.05C3.5 5.95833 3.523 5.87083 3.569 5.7875C3.61467 5.70417 3.68333 5.64167 3.775 5.6C4.15833 5.4 4.55833 5.25 4.975 5.15C5.39167 5.05 5.81667 5 6.25 5C6.73333 5 7.20633 5.0625 7.669 5.1875C8.13133 5.3125 8.575 5.5 9 5.75C9.425 5.5 9.86883 5.3125 10.3315 5.1875C10.7938 5.0625 11.2667 5 11.75 5C12.1833 5 12.6083 5.05 13.025 5.15C13.4417 5.25 13.8417 5.4 14.225 5.6C14.3167 5.64167 14.3855 5.70417 14.4315 5.7875C14.4772 5.87083 14.5 5.95833 14.5 6.05V12.075C14.5 12.2667 14.4188 12.4125 14.2565 12.5125C14.0938 12.6125 13.925 12.6167 13.75 12.525C13.4417 12.3583 13.1187 12.2292 12.781 12.1375C12.4437 12.0458 12.1 12 11.75 12C11.375 12 11.0083 12.048 10.65 12.144C10.2917 12.2397 9.95 12.3833 9.625 12.575C9.53333 12.625 9.4355 12.6647 9.3315 12.694C9.22717 12.723 9.11667 12.7375 9 12.7375Z" fill="white"/>
</svg>

<svg width="18" height="18" viewBox="0 0 18 18" fill="none" xmlns="http://www.w3.org/2000/svg">
  <circle cx="9" cy="9" r="8.5" fill="gray" stroke="#fff"/>
  <path d="M10 7.388a.4.4 0 0 1 .082-.232.4.4 0 0 1 .18-.156q.363-.125.726-.187a4.5 4.5 0 0 1 1.256-.032q.244.031.481.082.113.024.194.124a.35.35 0 0 1 .081.226q0 .212-.137.312-.138.1-.35.05a3 3 0 0 0-.369-.056 4 4 0 0 0-.394-.019q-.326 0-.637.063a4.5 4.5 0 0 0-.6.162q-.225.087-.369-.012Q10 7.612 10 7.388m0 2.75a.4.4 0 0 1 .082-.232.4.4 0 0 1 .18-.156q.363-.125.726-.187a4.5 4.5 0 0 1 1.256-.032q.244.031.481.082.113.024.194.125a.35.35 0 0 1 .081.225q0 .211-.137.312-.138.1-.35.05a3 3 0 0 0-.369-.056 4 4 0 0 0-.394-.019q-.326 0-.637.056-.314.057-.6.157-.225.087-.369-.007-.144-.093-.144-.319m0-1.376a.4.4 0 0 1 .082-.231.4.4 0 0 1 .18-.156q.363-.125.726-.187a4.5 4.5 0 0 1 1.256-.032q.244.031.481.082.113.024.194.125a.35.35 0 0 1 .081.225q0 .211-.137.312-.138.1-.35.05a3 3 0 0 0-.369-.056 4 4 0 0 0-.394-.019q-.326 0-.637.063a4.5 4.5 0 0 0-.6.162q-.225.087-.369-.012-.144-.1-.144-.325m-.5 2.763a5.5 5.5 0 0 1 1.107-.394q.555-.13 1.143-.131.45 0 .882.075.43.075.868.225V6.35a4.3 4.3 0 0 0-.856-.262 4.6 4.6 0 0 0-2.056.062q-.575.15-1.088.45zM9 12.738q-.175 0-.331-.044a1.4 1.4 0 0 1-.294-.119 4 4 0 0 0-1.025-.431A4.2 4.2 0 0 0 6.25 12q-.525 0-1.031.137-.506.138-.969.388a.48.48 0 0 1-.506-.013.48.48 0 0 1-.244-.437V6.05q0-.138.069-.263a.43.43 0 0 1 .206-.187q.574-.3 1.2-.45A5.44 5.44 0 0 1 9 5.75 5.4 5.4 0 0 1 11.75 5q.65 0 1.275.15.626.15 1.2.45.137.063.207.188.068.124.068.262v6.025a.48.48 0 0 1-.243.438.48.48 0 0 1-.507.012 4.5 4.5 0 0 0-.969-.388A4 4 0 0 0 11.75 12q-.563 0-1.1.144t-1.025.431q-.138.075-.293.119a1.2 1.2 0 0 1-.332.043" fill="#fff"/>
</svg>
